src/assets/icons/phone.svg

<svg width="24" height="24" viewBox="0 0 24 24" fill="none" xmlns="http://www.w3.org/2000/svg">
<path d="M8.85139 9.48954C9.37511 10.5803 10.089 11.6027 10.9932 12.5068C11.8973 13.411 12.9197 14.1249 14.0105 14.6486C14.1043 14.6937 14.1512 14.7162 14.2106 14.7335C14.4215 14.795 14.6806 14.7508 14.8592 14.6229C14.9095 14.5869 14.9525 14.5439 15.0385 14.4579C15.3016 14.1948 15.4331 14.0633 15.5654 13.9773C16.0642 13.653 16.7072 13.653 17.206 13.9773C17.3383 14.0633 17.4698 14.1948 17.7329 14.4579L17.8795 14.6045C18.2794 15.0044 18.4794 15.2043 18.588 15.4191C18.804 15.8461 18.804 16.3505 18.588 16.7776C18.4794 16.9923 18.2794 17.1923 17.8795 17.5921L17.7609 17.7108C17.3624 18.1093 17.1631 18.3085 16.8922 18.4607C16.5916 18.6296 16.1247 18.751 15.7799 18.75C15.4692 18.7491 15.2568 18.6888 14.8321 18.5682C12.5496 17.9204 10.3957 16.698 8.59885 14.9011C6.80197 13.1043 5.57961 10.9504 4.93176 8.66791C4.81121 8.24318 4.75093 8.03082 4.75001 7.72009C4.74898 7.37529 4.8704 6.90839 5.03927 6.60778C5.19145 6.33686 5.39072 6.1376 5.78924 5.73908L5.90785 5.62046C6.30775 5.22057 6.50769 5.02062 6.72243 4.91201C7.14951 4.696 7.65386 4.696 8.08093 4.91201C8.29567 5.02062 8.49562 5.22057 8.89551 5.62046L9.04214 5.76709C9.30521 6.03016 9.43674 6.1617 9.52274 6.29396C9.84705 6.79277 9.84705 7.43581 9.52274 7.93461C9.43674 8.06688 9.30521 8.19842 9.04214 8.46148C8.95613 8.5475 8.91312 8.59051 8.87712 8.64078C8.74919 8.81944 8.70502 9.07848 8.76651 9.28944C8.78382 9.3488 8.80634 9.39571 8.85139 9.48954Z" stroke="#314158" stroke-width="1.5" stroke-linecap="round" stroke-linejoin="round"/>
</svg>

<svg fill="none" viewBox="0 0 24 24"><path stroke="currentColor" stroke-linecap="round" stroke-linejoin="round" stroke-width="1.5" d="M8.851 9.49a11 11 0 0 0 2.142 3.017 11 11 0 0 0 3.018 2.142c.093.045.14.067.2.085.21.061.47.017.648-.111.05-.036.094-.08.18-.165.263-.263.394-.395.526-.48a1.5 1.5 0 0 1 1.641 0c.132.085.264.217.527.48l.146.146c.4.4.6.6.709.815.216.427.216.931 0 1.359-.109.214-.309.414-.709.814l-.118.119c-.399.398-.598.598-.869.75-.3.169-.767.29-1.112.289-.31 0-.523-.061-.948-.182A14.3 14.3 0 0 1 8.6 14.901a14.3 14.3 0 0 1-3.667-6.233c-.12-.425-.181-.637-.182-.948-.001-.345.12-.812.29-1.112.151-.271.35-.47.75-.869l.118-.119c.4-.4.6-.6.814-.708a1.5 1.5 0 0 1 1.359 0c.215.109.415.309.815.708l.146.147c.263.263.395.395.48.527a1.5 1.5 0 0 1 0 1.64c-.085.133-.217.264-.48.527-.086.086-.129.13-.165.18a.79.79 0 0 0-.11.648c.017.06.04.107.084.2"/></svg>
